X: 18388
T: Hungry Rocks, The
R: jig
M: 6/8
K: Dmixolydian
B|:~A3 cAG|ABc ABc|AAD FED|~G3 EFG|~A3 cAG|AB^c d2e|fed ed^c|1 AdB cBA:|2 Ad^c d2e||
|:~f3 fed|efg ecA|ded dcd|e{c}BA e{c}BA|~f3 fed|efg efg|faf efg|1 fd^c d2e:|2 fd^c d3||

